X:629
T: ALLEIN GOTT IN DER HOEH SEI EHR
N: E1987
O: Europa, Mitteleuropa, Deutschland
R: geistlich, Dank -, Lob - Lied, Choral
M: 3/4
L: 1/8
K: F
F2 | A4B2 | c4B2 | A4G2 | A4
A2 | A4G2 | B2A2G2 | F2EDE2 | F4
F2 | A4B2 | c4B2 | A4G2 | A4
A2 | A4G2 | B2A2G2 | F2EDE2 | F4
F2 | F4G2 | B4A2 | G4F2 | G4
G2 | A4B2 | c4B2 | A4G2 | A4
F2 | G2G2B2 | A4G2 | F4E2 | F4

